www/assets/icons/person_off.svg

<svg width="24" height="24" viewBox="0 0 24 24" xmlns="http://www.w3.org/2000/svg" fill='currentColor'><path d="M9.35998 5.1101C10.07 4.0101 11.31 3.2901 12.71 3.2901C14.92 3.2901 16.71 5.0801 16.71 7.2901C16.71 8.6901 15.99 9.9301 14.89 10.6401L9.35998 5.1101ZM20.71 16.4601C20.69 15.3601 20.08 14.3501 19.1 13.8401C18.56 13.5601 17.97 13.3001 17.33 13.0801L20.71 16.4601ZM21.9 20.4801L3.51998 2.1001L2.09998 3.5101L10.99 12.4001C9.17998 12.6301 7.59998 13.1901 6.31998 13.8501C5.31998 14.3601 4.70998 15.3901 4.70998 16.5101V19.2901H17.88L20.49 21.9001L21.9 20.4801Z"/></svg>

<svg xmlns="http://www.w3.org/2000/svg" width="24" height="24" viewBox="0 0 24 24" fill='currentColor'><path d="M9.36 5.11a3.999 3.999 0 1 1 5.53 5.53zm11.35 11.35c-.02-1.1-.63-2.11-1.61-2.62-.54-.28-1.13-.54-1.77-.76zm1.19 4.02L3.52 2.1 2.1 3.51l8.89 8.89c-1.81.23-3.39.79-4.67 1.45a2.97 2.97 0 0 0-1.61 2.66v2.78h13.17l2.61 2.61z"/></svg>
